digitransit-component/packages/digitransit-component-icon/src/assets/calendar.svg

<svg id="icon-icon_calendar" width="20px" height="18px" viewBox="0 0 20 18">
	<title>icon-calendar</title>
	<g stroke="none" stroke-width="1" fill-rule="evenodd">
			<g transform="translate(-224.000000, -266.000000)">
					<g transform="translate(50.000000, 50.000000)">
							<g>
									<g transform="translate(10.000000, 200.000000)">
											<g transform="translate(164.000000, 16.000000)">
													<g>
															<path d="M3.26988932,1.61192687 L3.26988932,2.70446418 C3.26988932,3.30781791 3.7579203,3.79700149 4.35985243,3.79700149 C4.96178455,3.79700149 5.44981554,3.30781791 5.44981554,2.70446418 L5.44981554,2.70446418 L5.44981554,1.61192687 L13.6245388,1.61192687 L13.6245388,2.70446418 C13.6245388,3.30781791 14.1125698,3.79700149 14.7145019,3.79700149 C15.3164341,3.79700149 15.8044651,3.30781791 15.8044651,2.70446418 L15.8044651,2.70446418 L15.8044651,1.61192687 L17.9843913,1.61192687 C18.5865959,1.61192687 19.0746269,2.10111045 19.0746269,2.70446418 L19.0746269,2.70446418 L19.0746269,16.9074493 C19.0746269,17.510803 18.5865959,17.9999866 17.9843913,17.9999866 L17.9843913,17.9999866 L1.0902356,17.9999866 C0.488030981,17.9999866 0,17.510803 0,16.9074493 L0,16.9074493 L0,2.70446418 C0,2.10111045 0.488030981,1.61192687 1.0902356,1.61192687 L1.0902356,1.61192687 L3.26988932,1.61192687 Z M17.9843913,5.98207612 L1.08996311,5.98207612 L1.08996311,16.9074493 L17.9843913,16.9074493 L17.9843913,5.98207612 Z M11.6868358,13.9029716 C12.1314627,13.9029716 12.4925373,14.2637776 12.4925373,14.7089418 C12.4925373,15.154106 12.1314627,15.5149119 11.6868358,15.5149119 C11.241403,15.5149119 10.880597,15.154106 10.880597,14.7089418 C10.880597,14.2637776 11.241403,13.9029716 11.6868358,13.9029716 Z M9.53717913,13.9029716 C9.98200051,13.9029716 10.3432836,14.2637776 10.3432836,14.7089418 C10.3432836,15.154106 9.98200051,15.5149119 9.53717913,15.5149119 C9.09235774,15.5149119 8.73134328,15.154106 8.73134328,14.7089418 C8.73134328,14.2637776 9.09235774,13.9029716 9.53717913,13.9029716 Z M7.38779104,13.9029716 C7.83268657,13.9029716 8.19402985,14.2637776 8.19402985,14.7089418 C8.19402985,15.154106 7.83268657,15.5149119 7.38779104,15.5149119 C6.94262687,15.5149119 6.58208955,15.154106 6.58208955,14.7089418 C6.58208955,14.2637776 6.94262687,13.9029716 7.38779104,13.9029716 Z M5.1717761,13.9029716 C5.61686609,13.9029716 5.97761194,14.2637776 5.97761194,14.7089418 C5.97761194,15.154106 5.61686609,15.5149119 5.1717761,15.5149119 C4.7266861,15.5149119 4.36567164,15.154106 4.36567164,14.7089418 C4.36567164,14.2637776 4.7266861,13.9029716 5.1717761,13.9029716 Z M3.02265672,13.9029716 C3.46755224,13.9029716 3.82835821,14.2637776 3.82835821,14.7089418 C3.82835821,15.154106 3.46755224,15.5149119 3.02265672,15.5149119 C2.57695522,15.5149119 2.21641791,15.154106 2.21641791,14.7089418 C2.21641791,14.2637776 2.57695522,13.9029716 3.02265672,13.9029716 Z M16.0517015,11.7537179 C16.4971343,11.7537179 16.858209,12.1145239 16.858209,12.5596881 C16.858209,13.0048522 16.4971343,13.3656582 16.0517015,13.3656582 C15.606806,13.3656582 15.2462687,13.0048522 15.2462687,12.5596881 C15.2462687,12.1145239 15.606806,11.7537179 16.0517015,11.7537179 Z M13.9028508,11.7537179 C14.3482094,11.7537179 14.7089552,12.1145239 14.7089552,12.5596881 C14.7089552,13.0048522 14.3482094,13.3656582 13.9028508,13.3656582 C13.458298,13.3656582 13.0970149,13.0048522 13.0970149,12.5596881 C13.0970149,12.1145239 13.458298,11.7537179 13.9028508,11.7537179 Z M11.6868358,11.7537179 C12.1314627,11.7537179 12.4925373,12.1145239 12.4925373,12.5596881 C12.4925373,13.0048522 12.1314627,13.3656582 11.6868358,13.3656582 C11.241403,13.3656582 10.880597,13.0048522 10.880597,12.5596881 C10.880597,12.1145239 11.241403,11.7537179 11.6868358,11.7537179 Z M9.53717913,11.7537179 C9.98200051,11.7537179 10.3432836,12.1145239 10.3432836,12.5596881 C10.3432836,13.0048522 9.98200051,13.3656582 9.53717913,13.3656582 C9.09235774,13.3656582 8.73134328,13.0048522 8.73134328,12.5596881 C8.73134328,12.1145239 9.09235774,11.7537179 9.53717913,11.7537179 Z M7.38779104,11.7537179 C7.83268657,11.7537179 8.19402985,12.1145239 8.19402985,12.5596881 C8.19402985,13.0048522 7.83268657,13.3656582 7.38779104,13.3656582 C6.94262687,13.3656582 6.58208955,13.0048522 6.58208955,12.5596881 C6.58208955,12.1145239 6.94262687,11.7537179 7.38779104,11.7537179 Z M5.1717761,11.7537179 C5.61686609,11.7537179 5.97761194,12.1145239 5.97761194,12.5596881 C5.97761194,13.0048522 5.61686609,13.3656582 5.1717761,13.3656582 C4.7266861,13.3656582 4.36567164,13.0048522 4.36567164,12.5596881 C4.36567164,12.1145239 4.7266861,11.7537179 5.1717761,11.7537179 Z M3.02265672,11.7537179 C3.46755224,11.7537179 3.82835821,12.1145239 3.82835821,12.5596881 C3.82835821,13.0048522 3.46755224,13.3656582 3.02265672,13.3656582 C2.57695522,13.3656582 2.21641791,13.0048522 2.21641791,12.5596881 C2.21641791,12.1145239 2.57695522,11.7537179 3.02265672,11.7537179 Z M16.0517015,9.5373 C16.4971343,9.5373 16.858209,9.89810597 16.858209,10.3432701 C16.858209,10.7884343 16.4971343,11.1492403 16.0517015,11.1492403 C15.606806,11.1492403 15.2462687,10.7884343 15.2462687,10.3432701 C15.2462687,9.89810597 15.606806,9.5373 16.0517015,9.5373 Z M13.9028508,9.5373 C14.3482094,9.5373 14.7089552,9.89810597 14.7089552,10.3432701 C14.7089552,10.7884343 14.3482094,11.1492403 13.9028508,11.1492403 C13.458298,11.1492403 13.0970149,10.7884343 13.0970149,10.3432701 C13.0970149,9.89810597 13.458298,9.5373 13.9028508,9.5373 Z M11.6868358,9.5373 C12.1314627,9.5373 12.4925373,9.89810597 12.4925373,10.3432701 C12.4925373,10.7884343 12.1314627,11.1492403 11.6868358,11.1492403 C11.241403,11.1492403 10.880597,10.7884343 10.880597,10.3432701 C10.880597,9.89810597 11.241403,9.5373 11.6868358,9.5373 Z M9.53717913,9.5373 C9.98200051,9.5373 10.3432836,9.89810597 10.3432836,10.3432701 C10.3432836,10.7884343 9.98200051,11.1492403 9.53717913,11.1492403 C9.09235774,11.1492403 8.73134328,10.7884343 8.73134328,10.3432701 C8.73134328,9.89810597 9.09235774,9.5373 9.53717913,9.5373 Z M7.38779104,9.5373 C7.83268657,9.5373 8.19402985,9.89810597 8.19402985,10.3432701 C8.19402985,10.7884343 7.83268657,11.1492403 7.38779104,11.1492403 C6.94262687,11.1492403 6.58208955,10.7884343 6.58208955,10.3432701 C6.58208955,9.89810597 6.94262687,9.5373 7.38779104,9.5373 Z M5.1717761,9.5373 C5.61686609,9.5373 5.97761194,9.89810597 5.97761194,10.3432701 C5.97761194,10.7884343 5.61686609,11.1492403 5.1717761,11.1492403 C4.7266861,11.1492403 4.36567164,10.7884343 4.36567164,10.3432701 C4.36567164,9.89810597 4.7266861,9.5373 5.1717761,9.5373 Z M3.02265672,9.5373 C3.46755224,9.5373 3.82835821,9.89810597 3.82835821,10.3432701 C3.82835821,10.7884343 3.46755224,11.1492403 3.02265672,11.1492403 C2.57695522,11.1492403 2.21641791,10.7884343 2.21641791,10.3432701 C2.21641791,9.89810597 2.57695522,9.5373 3.02265672,9.5373 Z M16.0517015,7.38804627 C16.4971343,7.38804627 16.858209,7.7491209 16.858209,8.19401642 C16.858209,8.6391806 16.4971343,8.99998657 16.0517015,8.99998657 C15.606806,8.99998657 15.2462687,8.6391806 15.2462687,8.19401642 C15.2462687,7.7491209 15.606806,7.38804627 16.0517015,7.38804627 Z M13.9028508,7.38804627 C14.3482094,7.38804627 14.7089552,7.7491209 14.7089552,8.19401642 C14.7089552,8.6391806 14.3482094,8.99998657 13.9028508,8.99998657 C13.458298,8.99998657 13.0970149,8.6391806 13.0970149,8.19401642 C13.0970149,7.7491209 13.458298,7.38804627 13.9028508,7.38804627 Z M11.6868358,7.38804627 C12.1314627,7.38804627 12.4925373,7.7491209 12.4925373,8.19401642 C12.4925373,8.6391806 12.1314627,8.99998657 11.6868358,8.99998657 C11.241403,8.99998657 10.880597,8.6391806 10.880597,8.19401642 C10.880597,7.7491209 11.241403,7.38804627 11.6868358,7.38804627 Z M9.53717913,7.38804627 C9.98200051,7.38804627 10.3432836,7.7491209 10.3432836,8.19401642 C10.3432836,8.6391806 9.98200051,8.99998657 9.53717913,8.99998657 C9.09235774,8.99998657 8.73134328,8.6391806 8.73134328,8.19401642 C8.73134328,7.7491209 9.09235774,7.38804627 9.53717913,7.38804627 Z M14.7088209,-1.34328358e-05 C15.0053438,-1.34328358e-05 15.2462687,0.245443657 15.2462687,0.54849403 L15.2462687,2.74252388 C15.2462687,3.0453 15.0053438,3.29103134 14.7088209,3.29103134 C14.412298,3.29103134 14.1716418,3.0453 14.1716418,2.74252388 L14.1716418,0.54849403 C14.1716418,0.245443657 14.412298,-1.34328358e-05 14.7088209,-1.34328358e-05 Z M4.36553728,-1.34328358e-05 C4.66220846,-1.34328358e-05 4.90298507,0.245443657 4.90298507,0.54849403 L4.90298507,2.74252388 C4.90298507,3.0453 4.66220846,3.29103134 4.36553728,3.29103134 C4.0688661,3.29103134 3.82835821,3.0453 3.82835821,2.74252388 L3.82835821,0.54849403 C3.82835821,0.245443657 4.0688661,-1.34328358e-05 4.36553728,-1.34328358e-05 Z"></path>
													</g>
											</g>
									</g>
							</g>
					</g>
			</g>
	</g>
</svg>

<svg width="20" height="18" viewBox="0 0 20 18">
 <title>icon-calendar</title>
 <path fill-rule="evenodd" d="M3.27 1.612v1.092c0 .604.488 1.093 1.09 1.093s1.09-.49 1.09-1.093V1.612h8.175v1.092c0 .604.488 1.093 1.09 1.093.601 0 1.09-.49 1.09-1.093V1.612h2.18c.602 0 1.09.49 1.09 1.092v14.203c0 .604-.488 1.093-1.09 1.093H1.09C.488 18 0 17.51 0 16.907V2.704c0-.603.488-1.092 1.09-1.092zm14.714 4.37H1.09v10.925h16.894zm-6.297 7.921a.806.806 0 1 1 0 1.612.806.806 0 0 1 0-1.612m-2.15 0a.806.806 0 1 1 0 1.612.806.806 0 0 1 0-1.612m-2.15 0a.806.806 0 1 1 0 1.613.806.806 0 0 1 0-1.613m-2.215 0a.806.806 0 1 1 0 1.612.806.806 0 0 1 0-1.612m-2.15 0a.806.806 0 1 1 0 1.612.806.806 0 0 1 0-1.612m13.03-2.15a.806.806 0 1 1 0 1.613.806.806 0 0 1 0-1.612m-2.15 0a.806.806 0 1 1 .001 1.613.806.806 0 0 1 0-1.612m-2.215 0a.806.806 0 1 1 0 1.613.806.806 0 0 1 0-1.612m-2.15 0a.806.806 0 1 1 0 1.613.806.806 0 0 1 0-1.612m-2.15 0a.806.806 0 1 1 0 1.613.806.806 0 0 1 0-1.612m-2.215 0a.806.806 0 1 1 0 1.612.806.806 0 0 1 0-1.611m-2.15 0a.806.806 0 1 1 0 1.612.806.806 0 0 1 0-1.611m13.03-2.216a.806.806 0 1 1 0 1.613.806.806 0 0 1 0-1.613m-2.15 0a.806.806 0 1 1 .001 1.612.806.806 0 0 1 0-1.612m-2.215 0a.806.806 0 1 1 0 1.612.806.806 0 0 1 0-1.612m-2.15 0a.806.806 0 1 1 0 1.613.806.806 0 0 1 0-1.613m-2.15 0a.806.806 0 1 1 0 1.613.806.806 0 0 1 0-1.613m-2.215 0a.806.806 0 1 1 0 1.612.806.806 0 0 1 0-1.612m-2.15 0a.806.806 0 1 1 0 1.612.806.806 0 0 1 0-1.612m13.03-2.149a.806.806 0 1 1 0 1.613.806.806 0 0 1 0-1.613m-2.15 0a.806.806 0 1 1 0 1.612.806.806 0 0 1 0-1.612m-2.215 0A.806.806 0 1 1 11.686 9a.806.806 0 0 1 0-1.612m-2.15 0a.806.806 0 1 1 0 1.613.806.806 0 0 1 0-1.613M14.71 0c.296 0 .537.245.537.548v2.195c0 .302-.24.548-.537.548a.543.543 0 0 1-.537-.548V.548c0-.303.24-.548.537-.548M4.366 0c.296 0 .537.245.537.548v2.195c0 .302-.24.548-.537.548a.543.543 0 0 1-.538-.548V.548c0-.303.24-.548.538-.548"/>
</svg>
